app/dist/common/images/shenzhen-kinwong-electronic-coltd.svg

<svg height="18" viewBox="0 0 18 18" width="18" xmlns="http://www.w3.org/2000/svg"><path d="m0 0h18v18h-18z" fill="#f0f3fa"/><path d="m5.52 10.98 2.65-4.72-.04-.26h1.9l-3.9 7zm-.13-.42-.59-1.93 1.48-2.63h1.7zm5.01-4.56h1.64l-2.58 4.59-.56-1.89zm-.2 7-.6-1.98 2.82-5.02h1.58zm-6.2-7h1.9l-1.22 2.2z" fill="#e60213"/></svg>

<!-- by TradingView --><svg width="18" height="18" viewBox="0 0 18 18" xmlns="http://www.w3.org/2000/svg"><path fill="#F0F3FA" d="M0 0h18v18H0z"/><path d="m5.52 10.98 2.65-4.72L8.13 6h1.9l-3.9 7-.61-2.02ZM5.39 10.56 4.8 8.63 6.28 6h1.7l-2.59 4.56ZM10.4 6h1.64l-2.58 4.59L8.9 8.7 10.4 6ZM10.2 13l-.6-1.98L12.42 6H14l-3.8 7ZM4 6h1.9L4.68 8.2 4 6Z" fill="#E60213"/></svg>
